svgs/duotone/tablet.svg

<svg xmlns="http://www.w3.org/2000/svg" viewBox="0 0 448 512"><!-- Font Awesome Pro 6.0.0-alpha2 by @fontawesome - https://fontawesome.com License - https://fontawesome.com/license (Commercial License) --><defs><style>.fa-secondary{opacity:.4}</style></defs><path d="M0 384V448C0 483.346 28.654 512 64 512H384C419.346 512 448 483.346 448 448V384H0ZM288 448C288 456.837 280.837 464 272 464H176C167.163 464 160 456.837 160 448V448C160 439.163 167.163 432 176 432H272C280.837 432 288 439.163 288 448V448Z" class="fa-secondary"/><path d="M448 64V384H0V64C0 28.652 28.654 0 64 0H384C419.346 0 448 28.652 448 64Z" class="fa-primary"/></svg>

<svg xmlns="http://www.w3.org/2000/svg" viewBox="0 0 448 512"><!--! Font Awesome Pro 6.3.0 by @fontawesome - https://fontawesome.com License - https://fontawesome.com/license (Commercial License) Copyright 2023 Fonticons, Inc. --><defs><style>.fa-secondary{opacity:.4}</style></defs><path class="fa-primary" d="M448 64v320H0V64c0-35.35 28.65-64 64-64h320C419.3 0 448 28.65 448 64z"/><path class="fa-secondary" d="M0 384v64c0 35.35 28.65 64 64 64h320c35.35 0 64-28.65 64-64v-64H0zM288 447.1C288 456.8 280.8 464 272 464H175.1C167.2 464 160 456.8 160 448S167.2 432 175.1 432h96C280.8 432 288 439.2 288 447.1z"/></svg>
